X:1
T:Skye Boat Song (Jacobite)
C:Sir Harold Boulton, 1884
M:6/8
L:1/8
Q:1/4=80
K:G clef=treble
|:"G""^Chorus"[D3/2G,3/2]E/2D "Em"[G3/2E3/2]G/2G|"Am"[A3/2C3/2]B/2A "D7"[d3F3]
w:C~Speed, bon-nie boat, like a bird on the wing, 
w:Car-ry the lad that's_ born to be King,
|"G"[B3/2D3/2]A/2B "C"[E2C2]E|1 "D"[D3/2F,3/2]A,/2F,D,2 z:|2 "D7"D3 D2 z|
w:On-ward the sail-ors cry;___
w:Ov-er the sea to____ Skye.___
|:"Em""^Verses"[B3/2E3/2]G/2B [B3G3E3]|"Am"[A3/2C3/2]E/2A [A3E3C3]
w:1.Loud the winds howl, loud the waves roar,
w:1.Baf-fled, our foes stand by the shore,
w:2.Though the waves leap, soft shall ye sleep,
w:2.Rocked in the deep, Flor-a will keep
w:3.Ma-ny's the lad fought on that day,
w:3.When the night came, si-lent-ly lay
w:4.Burned are their homes, ex-ile and death
w:4.Yet e'er the sword cool in the sheath
|"Em"[G3/2B,3/2]E/2G "C"[G2E2C2] G|1 "Em"[EB,G,]B,G, B,EB,:|2 "Em"[E3B,3G,3] "D7"[D3A,3F,3]:||
w:1.Thun-der-clouds rend the air;_____
w:1.Fol-low they will not ______dare.______
w:2.O-cean's a roy-al bed._____
w:2.Watch by your wear-y ______head.______
w:3.Well the clay-more could wield,_____
w:3.Dead in Cul-lo-den's ______field.______
w:4.Scat-ter the loy-al men;_____
w:4.Char-lie will come a-______gain.______


